X: 35019
T: Roll Out The Snake
R: jig
M: 6/8
K: Adorian
|:BGA B2A|Bee efg|BGA BeB|dBA A3|
BGA B2A|Bee efg|agf gfe|dBA A3:|
|:eAe gfe|dAd fed|eAe gfe|fag fed|
eAe gfe|dAd efg|agf gfe|dBA A3:|

